src/svg/progress-01.svg

<?xml version="1.0" encoding="UTF-8" standalone="no"?>
<svg
   xmlns:dc="http://purl.org/dc/elements/1.1/"
   xmlns:cc="http://creativecommons.org/ns#"
   xmlns:rdf="http://www.w3.org/1999/02/22-rdf-syntax-ns#"
   xmlns:svg="http://www.w3.org/2000/svg"
   xmlns="http://www.w3.org/2000/svg"
   xmlns:sodipodi="http://sodipodi.sourceforge.net/DTD/sodipodi-0.dtd"
   xmlns:inkscape="http://www.inkscape.org/namespaces/inkscape"
   width="32"
   height="32"
   version="1.1"
   viewBox="0 0 32 32"
   id="svg70"
   sodipodi:docname="progress-01.svg"
   inkscape:version="0.92.4 5da689c313, 2019-01-14">
  <metadata
     id="metadata74">
    <rdf:RDF>
      <cc:Work
         rdf:about="">
        <dc:format>image/svg+xml</dc:format>
        <dc:type
           rdf:resource="http://purl.org/dc/dcmitype/StillImage" />
      </cc:Work>
    </rdf:RDF>
  </metadata>
  <sodipodi:namedview
     pagecolor="#ffffff"
     bordercolor="#666666"
     borderopacity="1"
     objecttolerance="10"
     gridtolerance="10"
     guidetolerance="10"
     inkscape:pageopacity="0"
     inkscape:pageshadow="2"
     inkscape:window-width="1366"
     inkscape:window-height="712"
     id="namedview72"
     showgrid="false"
     inkscape:zoom="40.660021"
     inkscape:cx="20.346194"
     inkscape:cy="7.4975802"
     inkscape:window-x="0"
     inkscape:window-y="28"
     inkscape:window-maximized="1"
     inkscape:current-layer="svg70" />
  <defs
     id="defs38">
    <linearGradient
       id="g"
       x1="17.871"
       x2="17.871"
       y1="7.6685"
       y2="17.893"
       gradientTransform="matrix(.60764 0 0 .58122 11.1 1033.5)"
       gradientUnits="userSpaceOnUse">
      <stop
         stop-color="#FBB114"
         offset="0"
         id="stop2" />
      <stop
         stop-color="#FF9508"
         offset="1"
         id="stop4" />
    </linearGradient>
    <linearGradient
       id="f"
       x1="23.954"
       x2="23.954"
       y1="8.6099"
       y2="19.256"
       gradientTransform="matrix(.5582 0 0 .6327 11.1 1033.5)"
       gradientUnits="userSpaceOnUse">
      <stop
         stop-color="#FF645D"
         offset="0"
         id="stop7" />
      <stop
         stop-color="#FF4332"
         offset="1"
         id="stop9" />
    </linearGradient>
    <linearGradient
       id="e"
       x1="20.127"
       x2="20.127"
       y1="19.205"
       y2="29.033"
       gradientTransform="matrix(.65219 0 0 .54152 11.1 1033.5)"
       gradientUnits="userSpaceOnUse">
      <stop
         stop-color="#CA70E1"
         offset="0"
         id="stop12" />
      <stop
         stop-color="#B452CB"
         offset="1"
         id="stop14" />
    </linearGradient>
    <linearGradient
       id="d"
       x1="16.36"
       x2="16.36"
       y1="17.893"
       y2="28.118"
       gradientTransform="matrix(.60764 0 0 .58122 11.1 1033.5)"
       gradientUnits="userSpaceOnUse">
      <stop
         stop-color="#14ADF6"
         offset="0"
         id="stop17" />
      <stop
         stop-color="#1191F4"
         offset="1"
         id="stop19" />
    </linearGradient>
    <linearGradient
       id="c"
       x1="13.308"
       x2="13.308"
       y1="13.619"
       y2="24.265"
       gradientTransform="matrix(.5582 0 0 .6327 11.1 1033.5)"
       gradientUnits="userSpaceOnUse">
      <stop
         stop-color="#52CF30"
         offset="0"
         id="stop22" />
      <stop
         stop-color="#3BBD1C"
         offset="1"
         id="stop24" />
    </linearGradient>
    <linearGradient
       id="a"
       x1="11.766"
       x2="11.766"
       y1="9.377"
       y2="19.205"
       gradientTransform="matrix(.65219 0 0 .54152 11.1 1033.5)"
       gradientUnits="userSpaceOnUse">
      <stop
         stop-color="#FFD305"
         offset="0"
         id="stop27" />
      <stop
         stop-color="#FDCF01"
         offset="1"
         id="stop29" />
    </linearGradient>
    <filter
       id="b"
       x="-.16181"
       y="-.095361"
       width="1.3236"
       height="1.1907"
       color-interpolation-filters="sRGB">
      <feGaussianBlur
         stdDeviation="0.62797713"
         id="feGaussianBlur32" />
    </filter>
    <filter
       id="h"
       x="-.12"
       y="-.12"
       width="1.24"
       height="1.24"
       color-interpolation-filters="sRGB">
      <feGaussianBlur
         stdDeviation="0.65"
         id="feGaussianBlur35" />
    </filter>
    <filter
       style="color-interpolation-filters:sRGB"
       id="h-8"
       x="-0.12"
       y="-0.12"
       width="1.24"
       height="1.24">
      <feGaussianBlur
         stdDeviation="0.65"
         id="feGaussianBlur5" />
    </filter>
    <filter
       inkscape:collect="always"
       style="color-interpolation-filters:sRGB"
       id="filter892"
       x="-0.12"
       width="1.24"
       y="-0.12"
       height="1.24">
      <feGaussianBlur
         inkscape:collect="always"
         stdDeviation="0.65"
         id="feGaussianBlur894" />
    </filter>
    <filter
       inkscape:collect="always"
       style="color-interpolation-filters:sRGB"
       id="filter4666"
       x="-0.16854379"
       width="1.3370876"
       y="-0.093166336"
       height="1.1863327">
      <feGaussianBlur
         inkscape:collect="always"
         stdDeviation="0.75537022"
         id="feGaussianBlur4668" />
    </filter>
  </defs>
  <path
     id="path850"
     d="M 23,17 A 6.5,6.5 0 0 0 16.5,23.5 6.5,6.5 0 0 0 23,30 6.5,6.5 0 0 0 29.5,23.5 6.5,6.5 0 0 0 23,17 Z m 0,3 A 3.5,3.5 0 0 1 26.5,23.5 3.5,3.5 0 0 1 23,27 3.5,3.5 0 0 1 19.5,23.5 3.5,3.5 0 0 1 23,20 Z"
     style="opacity:0.15;fill:#000000;paint-order:stroke fill markers;filter:url(#filter892)"
     inkscape:connector-curvature="0" />
  <g
     id="g4682"
     transform="translate(-31,1.9999995)">
    <path
       style="color:#000000;font-style:normal;font-variant:normal;font-weight:normal;font-stretch:normal;font-size:medium;line-height:normal;font-family:sans-serif;font-variant-ligatures:normal;font-variant-position:normal;font-variant-caps:normal;font-variant-numeric:normal;font-variant-alternates:normal;font-feature-settings:normal;text-indent:0;text-align:start;text-decoration:none;text-decoration-line:none;text-decoration-style:solid;text-decoration-color:#000000;letter-spacing:normal;word-spacing:normal;text-transform:none;writing-mode:lr-tb;direction:ltr;text-orientation:mixed;dominant-baseline:auto;baseline-shift:baseline;text-anchor:start;white-space:normal;shape-padding:0;clip-rule:nonzero;display:inline;overflow:visible;visibility:visible;opacity:0.35;isolation:auto;mix-blend-mode:normal;color-interpolation:sRGB;color-interpolation-filters:linearRGB;solid-color:#000000;solid-opacity:1;vector-effect:none;fill:#000000;fill-opacity:1;fill-rule:nonzero;stroke:none;stroke-width:2;stroke-linecap:round;stroke-linejoin:round;stroke-miterlimit:4;stroke-dasharray:none;stroke-dashoffset:0;stroke-opacity:1;paint-order:stroke fill markers;filter:url(#filter4666);color-rendering:auto;image-rendering:auto;shape-rendering:auto;text-rendering:auto;enable-background:accumulate"
       d="m 36.378906,3.070312 a 1.0001,1.0001 0 0 0 -1.033203,1 v 13 a 1.0001,1.0001 0 0 0 0.449219,0.833984 l 6.757812,4.458985 a 1.0001,1.0001 0 0 0 1.519531,-0.587891 l 1.998047,-7.798828 A 1.0001,1.0001 0 0 0 45.84375,13.05664 L 37.085937,3.398437 A 1.0001,1.0001 0 0 0 36.378906,3.070312 Z M 37.345703,6.6621089 44,14 42.482422,19.919921 37.345703,16.53125 Z"
       id="path4556"
       inkscape:connector-curvature="0" />
    <path
       inkscape:connector-curvature="0"
       id="path4552"
       d="M 36.033203,2 A 1.0001,1.0001 0 0 0 35,3 v 13 a 1.0001,1.0001 0 0 0 0.449219,0.833984 l 6.757812,4.458985 a 1.0001,1.0001 0 0 0 1.519531,-0.587891 L 45.724609,12.90625 A 1.0001,1.0001 0 0 0 45.498047,11.986328 L 36.740234,2.328125 A 1.0001,1.0001 0 0 0 36.033203,2 Z M 37,5.5917969 43.654297,12.929688 42.136719,18.849609 37,15.460938 Z"
       style="color:#000000;font-style:normal;font-variant:normal;font-weight:normal;font-stretch:normal;font-size:medium;line-height:normal;font-family:sans-serif;font-variant-ligatures:normal;font-variant-position:normal;font-variant-caps:normal;font-variant-numeric:normal;font-variant-alternates:normal;font-feature-settings:normal;text-indent:0;text-align:start;text-decoration:none;text-decoration-line:none;text-decoration-style:solid;text-decoration-color:#000000;letter-spacing:normal;word-spacing:normal;text-transform:none;writing-mode:lr-tb;direction:ltr;text-orientation:mixed;dominant-baseline:auto;baseline-shift:baseline;text-anchor:start;white-space:normal;shape-padding:0;clip-rule:nonzero;display:inline;overflow:visible;visibility:visible;opacity:1;isolation:auto;mix-blend-mode:normal;color-interpolation:sRGB;color-interpolation-filters:linearRGB;solid-color:#000000;solid-opacity:1;vector-effect:none;fill:#ffffff;fill-opacity:1;fill-rule:nonzero;stroke:none;stroke-width:2;stroke-linecap:round;stroke-linejoin:round;stroke-miterlimit:4;stroke-dasharray:none;stroke-dashoffset:0;stroke-opacity:1;paint-order:stroke fill markers;color-rendering:auto;image-rendering:auto;shape-rendering:auto;text-rendering:auto;enable-background:accumulate" />
    <path
       sodipodi:nodetypes="ccccc"
       inkscape:connector-curvature="0"
       id="rect4546"
       d="m 36,3 v 13 l 6.757419,4.457263 1.999033,-7.799883 z"
       style="opacity:1;fill:#333333;fill-opacity:1;stroke:none;stroke-width:2.23740506;stroke-linecap:round;stroke-linejoin:round;stroke-miterlimit:4;stroke-dasharray:none;stroke-opacity:1;paint-order:stroke fill markers" />
  </g>
  <g
     id="g964"
     transform="rotate(60,23,22.999999)">
    <path
       id="circle913"
       d="m 23,17 a 6,6 0 0 0 -6,6 h 2 a 4.0000248,4.0000248 0 0 1 4,-4 z"
       style="fill:#ff3d00;fill-opacity:1;stroke-width:0.92307693;paint-order:stroke fill markers"
       inkscape:connector-curvature="0" />
    <path
       inkscape:connector-curvature="0"
       style="fill:#1976d2;fill-opacity:1;stroke-width:0.92307693;paint-order:stroke fill markers"
       d="m 23,17 a 6,6 0 0 1 6,6 h -2 a 4.0000248,4.0000248 0 0 0 -4,-4 z"
       id="path954" />
    <path
       inkscape:connector-curvature="0"
       style="fill:#ffc107;fill-opacity:1;stroke-width:0.92307693;paint-order:stroke fill markers"
       d="m 23,29 a 6,6 0 0 1 -6,-6 h 2 a 4.0000248,4.0000248 0 0 0 4,4 z"
       id="path956" />
    <path
       id="path958"
       d="m 23,29 a 6,6 0 0 0 6,-6 h -2 a 4.0000248,4.0000248 0 0 1 -4,4 z"
       style="fill:#4caf50;fill-opacity:1;stroke-width:0.92307693;paint-order:stroke fill markers"
       inkscape:connector-curvature="0" />
  </g>
</svg>

<svg xmlns="http://www.w3.org/2000/svg" width="32" height="32" viewBox="0 0 32 32">
  <defs>
    <filter style="color-interpolation-filters:sRGB" id="a" x="-.12" width="1.24" y="-.12" height="1.24">
      <feGaussianBlur stdDeviation=".65"/>
    </filter>
    <filter style="color-interpolation-filters:sRGB" id="b" x="-.169" width="1.337" y="-.093" height="1.186">
      <feGaussianBlur stdDeviation=".755"/>
    </filter>
  </defs>
  <path d="M23 17a6.5 6.5 0 0 0-6.5 6.5A6.5 6.5 0 0 0 23 30a6.5 6.5 0 0 0 6.5-6.5A6.5 6.5 0 0 0 23 17m0 3a3.5 3.5 0 0 1 3.5 3.5A3.5 3.5 0 0 1 23 27a3.5 3.5 0 0 1-3.5-3.5A3.5 3.5 0 0 1 23 20" style="opacity:.15;fill:#000;paint-order:stroke fill markers;filter:url(#a)"/>
  <path style="color:#000;font-style:normal;font-variant:normal;font-weight:400;font-stretch:normal;font-size:medium;line-height:normal;font-family:sans-serif;font-variant-ligatures:normal;font-variant-position:normal;font-variant-caps:normal;font-variant-numeric:normal;font-variant-alternates:normal;font-feature-settings:normal;text-indent:0;text-align:start;text-decoration:none;text-decoration-line:none;text-decoration-style:solid;text-decoration-color:#000;letter-spacing:normal;word-spacing:normal;text-transform:none;writing-mode:lr-tb;direction:ltr;text-orientation:mixed;dominant-baseline:auto;baseline-shift:baseline;text-anchor:start;white-space:normal;shape-padding:0;clip-rule:nonzero;display:inline;overflow:visible;visibility:visible;opacity:.35;isolation:auto;mix-blend-mode:normal;color-interpolation:sRGB;color-interpolation-filters:linearRGB;solid-color:#000;solid-opacity:1;vector-effect:none;fill:#000;fill-opacity:1;fill-rule:nonzero;stroke:none;stroke-width:2;stroke-linecap:round;stroke-linejoin:round;stroke-miterlimit:4;stroke-dasharray:none;stroke-dashoffset:0;stroke-opacity:1;paint-order:stroke fill markers;filter:url(#b);color-rendering:auto;image-rendering:auto;shape-rendering:auto;text-rendering:auto;enable-background:accumulate" d="M36.379 3.07a1 1 0 0 0-1.033 1v13a1 1 0 0 0 .449.834l6.758 4.46a1 1 0 0 0 1.52-.589l1.997-7.798a1 1 0 0 0-.226-.92l-8.758-9.659a1 1 0 0 0-.707-.328m.967 3.592L44 14l-1.518 5.92-5.136-3.389Z" transform="translate(-31 2)"/>
  <path d="M36.033 2A1 1 0 0 0 35 3v13a1 1 0 0 0 .45.834l6.757 4.459a1 1 0 0 0 1.52-.588l1.998-7.799a1 1 0 0 0-.227-.92L36.74 2.328A1 1 0 0 0 36.033 2M37 5.592l6.654 7.338-1.517 5.92L37 15.46Z" style="color:#000;font-style:normal;font-variant:normal;font-weight:400;font-stretch:normal;font-size:medium;line-height:normal;font-family:sans-serif;font-variant-ligatures:normal;font-variant-position:normal;font-variant-caps:normal;font-variant-numeric:normal;font-variant-alternates:normal;font-feature-settings:normal;text-indent:0;text-align:start;text-decoration:none;text-decoration-line:none;text-decoration-style:solid;text-decoration-color:#000;letter-spacing:normal;word-spacing:normal;text-transform:none;writing-mode:lr-tb;direction:ltr;text-orientation:mixed;dominant-baseline:auto;baseline-shift:baseline;text-anchor:start;white-space:normal;shape-padding:0;clip-rule:nonzero;display:inline;overflow:visible;visibility:visible;opacity:1;isolation:auto;mix-blend-mode:normal;color-interpolation:sRGB;color-interpolation-filters:linearRGB;solid-color:#000;solid-opacity:1;vector-effect:none;fill:#d3c6aa;fill-opacity:1;fill-rule:nonzero;stroke:none;stroke-width:2;stroke-linecap:round;stroke-linejoin:round;stroke-miterlimit:4;stroke-dasharray:none;stroke-dashoffset:0;stroke-opacity:1;paint-order:stroke fill markers;color-rendering:auto;image-rendering:auto;shape-rendering:auto;text-rendering:auto;enable-background:accumulate" transform="translate(-31 2)"/>
  <path d="M36 3v13l6.757 4.457 2-7.8z" style="opacity:1;fill:#272e33;fill-opacity:1;stroke:none;stroke-width:2.23740506;stroke-linecap:round;stroke-linejoin:round;stroke-miterlimit:4;stroke-dasharray:none;stroke-opacity:1;paint-order:stroke fill markers" transform="translate(-31 2)"/>
  <path d="M23 17a6 6 0 0 0-6 6h2a4 4 0 0 1 4-4z" style="fill:#e67e80;fill-opacity:1;stroke-width:.92307693;paint-order:stroke fill markers" transform="rotate(60 23 23)"/>
  <path style="fill:#7fbbb3;fill-opacity:1;stroke-width:.92307693;paint-order:stroke fill markers" d="M23 17a6 6 0 0 1 6 6h-2a4 4 0 0 0-4-4z" transform="rotate(60 23 23)"/>
  <path style="fill:#dbbc7f;fill-opacity:1;stroke-width:.92307693;paint-order:stroke fill markers" d="M23 29a6 6 0 0 1-6-6h2a4 4 0 0 0 4 4z" transform="rotate(60 23 23)"/>
  <path d="M23 29a6 6 0 0 0 6-6h-2a4 4 0 0 1-4 4z" style="fill:#a7c080;fill-opacity:1;stroke-width:.92307693;paint-order:stroke fill markers" transform="rotate(60 23 23)"/>
</svg>
